X:756
T:Arne's Jig. JB.42
T:Aron's Maggot,aka. JB.42
M:4/4
L:1/8
Q:150
C:Thomas Arne 1710-1778
S:James Biggins MS, Leeds, 1779.
R:Reel
O:England
A:Yorkshire
N:Very like Aron's Maggot from Vicker's Ms 1770, Aron =Thomas Arne 1710
N:- 78 composer, perhaps. . This is a reel despite Mr Arne calling it
N:variously a jig and a maggot. (thats just me being peevish). CG
Z:vmp.Nick Barber & Chris Partington
K:G
G2BG B/c/d BG|F2AF A/B/c AF|G2BG B/c/d BG|cAdB|G/G/GG2:|!
|d|g2bg afed|e2f2gagd|g2ag afed|e/f/g f/g/a"tr"g3B|!
ceAc BdGB|Aagf edcB|ceAc BdGB|A/B/c AFG4:|]
